; generated by Slic3r 1.3.0 on 2019-01-04 at 18:16:52

; external perimeters extrusion width = 0.55mm (4.37mm^3/s)
; perimeters extrusion width = 0.70mm (11.44mm^3/s)
; infill extrusion width = 0.62mm (13.45mm^3/s)
; solid infill extrusion width = 0.70mm (3.81mm^3/s)
; top infill extrusion width = 0.70mm (2.86mm^3/s)

M107
M104 S200 ; set temperature
G28 ; home all axes
G1 Z5 F5000 ; lift nozzle

; Filament gcode

M109 S200 ; set temperature and wait for it to be reached
G21 ; set units to millimeters
G90 ; use absolute coordinates
M82 ; use absolute distances for extrusion
G92 E0
G1 Z0.350 F7800.000
G1 E-2.00000 F2400.00000
G92 E0
G1 X55.961 Y65.794 F7800.000
G1 E2.00000 F2400.00000
G1 F1800
G1 X57.625 Y64.981 E2.05729
G1 X108.223 Y48.541 E3.70343
G1 X110.494 Y48.221 E3.77440
G1 X112.317 Y48.541 E3.83168
G1 X114.806 Y49.350 E3.91265
G1 X116.832 Y50.425 E3.98361
G1 X118.118 Y51.756 E4.04089
G1 X149.390 Y94.798 E5.68703
G1 X150.396 Y96.859 E5.75800
G1 X150.655 Y98.692 E5.81528
G1 X150.655 Y101.308 E5.89624
G1 X150.258 Y103.567 E5.96720
G1 X149.390 Y105.202 E6.02449
G1 X118.118 Y148.244 E7.67063
G1 X116.469 Y149.838 E7.74160
G1 X114.806 Y150.650 E7.79887
G1 X112.317 Y151.459 E7.87985
G1 X110.046 Y151.779 E7.95081
G1 X108.223 Y151.459 E8.00809
G1 X57.625 Y135.019 E9.65423
G1 X55.599 Y133.943 E9.72520
G1 X54.312 Y132.612 E9.78248
G1 X52.774 Y130.495 E9.86345
G1 X51.768 Y128.434 E9.93441
G1 X51.509 Y126.601 E9.99169
G1 X51.509 Y73.399 E11.63783
G1 X51.906 Y71.140 E11.70879
G1 X52.774 Y69.505 E11.76607
G1 X54.312 Y67.388 E11.84703
G1 X55.907 Y65.846 E11.91568
G1 E9.91568 F2400.00000
G92 E0
G1 X102.388 Y115.588 F7800.000
G1 E2.00000 F2400.00000
G1 F1800
G1 X111.530 Y143.724 E2.91538
G1 X110.896 Y143.930 E2.93601
G1 X101.754 Y115.794 E3.85138
G1 X102.053 Y115.635 E3.86185
G1 X102.314 Y115.598 E3.87000
G1 X102.835 Y114.939 F7800.000
G1 F1800
G1 X112.318 Y144.125 E4.81952
G1 X110.495 Y144.717 E4.87882
G1 X101.012 Y115.531 E5.82834
G1 X101.288 Y115.333 E5.83885
G1 X101.857 Y115.032 E5.85878
G1 X102.495 Y114.941 E5.87871
G1 X102.760 Y114.940 E5.88690
G1 X102.695 Y115.419 F7800.000
G1 E3.88690 F2400.00000
G92 E0
G1 X100.070 Y109.531 F7800.000
G1 E2.00000 F2400.00000
G1 F1800
G1 X99.712 Y109.159 E2.01597
G1 X99.783 Y108.648 E2.03194
G1 X100.140 Y109.020 E2.04791
G1 X100.080 Y109.457 E2.06156
G1 X99.767 Y110.118 F7800.000
G1 F1800
G1 X99.052 Y109.373 E2.09348
G1 X99.193 Y108.351 E2.12541
G1 X100.086 Y108.061 E2.15446
G1 X100.801 Y108.805 E2.18639
G1 X100.660 Y109.827 E2.21831
G1 X99.838 Y110.094 E2.24505
G1 X99.625 Y109.638 F7800.000
G1 E0.24505 F2400.00000
G92 E0
G1 X106.066 Y100.000 F7800.000
G1 E2.00000 F2400.00000
G1 F1800
G1 X106.530 Y99.775 E2.01597
G1 X106.995 Y100.000 E2.03194
G1 X106.530 Y100.225 E2.04791
G1 X106.133 Y100.033 E2.06156
G1 X105.602 Y99.530 F7800.000
G1 F1800
G1 X106.530 Y99.081 E2.09348
G1 X107.459 Y99.530 E2.12541
G1 X107.459 Y100.470 E2.15446
G1 X106.530 Y100.919 E2.18639
G1 X105.602 Y100.470 E2.21831
G1 X105.602 Y99.605 E2.24505
G1 X106.101 Y99.544 F7800.000
G1 E0.24505 F2400.00000
G92 E0
G1 X99.783 Y91.352 F7800.000
G1 E2.00000 F2400.00000
G1 F1800
G1 X99.712 Y90.841 E2.01597
G1 X100.070 Y90.469 E2.03194
G1 X100.140 Y90.980 E2.04791
G1 X99.835 Y91.298 E2.06156
G1 X99.193 Y91.649 F7800.000
G1 F1800
G1 X99.052 Y90.627 E2.09348
G1 X99.767 Y89.882 E2.12541
G1 X100.660 Y90.173 E2.15446
G1 X100.801 Y91.195 E2.18639
G1 X100.086 Y91.939 E2.21831
G1 X99.264 Y91.672 E2.24505
G1 X99.360 Y91.177 F7800.000
G1 E0.24505 F2400.00000
G92 E0
G1 X89.617 Y94.655 F7800.000
G1 E2.00000 F2400.00000
G1 F1800
G1 X89.109 Y94.564 E2.01597
G1 X88.865 Y94.109 E2.03194
G1 X89.373 Y94.200 E2.04791
G1 X89.582 Y94.589 E2.06156
G1 X89.716 Y95.308 F7800.000
G1 F1800
G1 X88.701 Y95.126 E2.09348
G1 X88.214 Y94.217 E2.12541
G1 X88.766 Y93.457 E2.15447
G1 X89.781 Y93.639 E2.18639
G1 X90.268 Y94.548 E2.21832
G1 X89.760 Y95.247 E2.24505
G1 X89.320 Y95.004 F7800.000
G1 E0.24505 F2400.00000
G92 E0
G1 X89.617 Y105.345 F7800.000
G1 E2.00000 F2400.00000
G1 F1800
G1 X89.373 Y105.800 E2.01597
G1 X88.865 Y105.891 E2.03194
G1 X89.109 Y105.436 E2.04791
G1 X89.543 Y105.358 E2.06156
G1 X89.716 Y104.692 F7800.000
G1 F1800
G1 X90.268 Y105.452 E2.09062
G1 X89.781 Y106.361 E2.12254
G1 X88.766 Y106.543 E2.15447
G1 X88.214 Y105.783 E2.18352
G1 X88.701 Y104.874 E2.21545
G1 X89.643 Y104.705 E2.24505
G1 X89.769 Y105.189 F7800.000
G1 E0.24505 F2400.00000
G92 E0
G1 X83.434 Y109.432 F7800.000
G1 E2.00000 F2400.00000
G1 F1800
G1 X83.673 Y109.663 E2.01028
G1 X83.822 Y109.967 E2.02074
G1 X59.888 Y127.356 E2.93612
G1 X59.496 Y126.817 E2.95674
G1 X83.374 Y109.476 E3.86983
G1 X83.455 Y108.645 F7800.000
G1 F1800
G1 X83.724 Y108.842 E3.88014
G1 X84.186 Y109.290 E3.90007
G1 X84.470 Y109.869 E3.92000
G1 X84.576 Y110.191 E3.93051
G1 X59.749 Y128.229 E4.88003
G1 X58.623 Y126.679 E4.93933
G1 X83.394 Y108.689 E5.88659
G1 X83.563 Y108.960 F7800.000
G1 E3.88659 F2400.00000
G92 E0
G1 X83.430 Y90.572 F7800.000
G1 E2.00000 F2400.00000
G1 F1800
G1 X59.496 Y73.183 E2.91538
G1 X59.888 Y72.644 E2.93600
G1 X83.822 Y90.033 E3.85138
G1 X83.673 Y90.337 E3.86185
G1 X83.484 Y90.520 E3.87000
G1 X83.450 Y91.359 F7800.000
G1 F1800
G1 X58.623 Y73.321 E4.81952
G1 X59.749 Y71.771 E4.87882
G1 X84.576 Y89.809 E5.82834
G1 X84.470 Y90.131 E5.83885
G1 X84.186 Y90.710 E5.85878
G1 X83.724 Y91.158 E5.87871
G1 X83.510 Y91.315 E5.88690
G1 X83.280 Y90.889 F7800.000
G1 E3.88690 F2400.00000
G92 E0
G1 X101.754 Y84.206 F7800.000
G1 E2.00000 F2400.00000
G1 F1800
G1 X110.896 Y56.070 E2.91538
G1 X111.530 Y56.276 E2.93601
G1 X102.388 Y84.412 E3.85138
G1 X102.053 Y84.365 E3.86185
G1 X101.820 Y84.242 E3.87000
G1 X101.012 Y84.469 F7800.000
G1 F1800
G1 X110.495 Y55.283 E4.81952
G1 X112.318 Y55.875 E4.87882
G1 X102.835 Y85.061 E5.82834
G1 X102.495 Y85.059 E5.83885
G1 X101.857 Y84.968 E5.85878
G1 X101.288 Y84.667 E5.87871
G1 X101.073 Y84.512 E5.88690
G1 X101.407 Y84.162 F7800.000
G1 E3.88690 F2400.00000
G92 E0
G1 X113.471 Y99.667 F7800.000
G1 E2.00000 F2400.00000
G1 F1800
G1 X143.055 Y99.667 E2.91538
G1 X143.055 Y100.333 E2.93601
G1 X113.471 Y100.333 E3.85138
G1 X113.413 Y100.000 E3.86185
G1 X113.458 Y99.741 E3.87000
G1 X112.992 Y99.042 F7800.000
G1 F1800
G1 X143.680 Y99.042 E4.81952
G1 X143.680 Y100.958 E4.87882
G1 X112.992 Y100.958 E5.82834
G1 X112.889 Y100.635 E5.83886
G1 X112.779 Y100.000 E5.85879
G1 X112.889 Y99.365 E5.87872
G1 X112.970 Y99.113 E5.88691
G1 X113.406 Y99.323 F7800.000
G1 Z0.650 F7800.000
G1 E3.88691 F2400.00000
G92 E0
G1 X103.274 Y115.033 F7800.000
G1 E2.00000 F2400.00000
G1 F900
G1 X103.576 Y115.962 E2.02637
G1 X101.013 Y116.795 E2.09907
G1 X100.711 Y115.865 E2.12545
G1 X100.857 Y115.719 E2.13102
G1 X101.016 Y115.607 E2.13627
G1 X101.922 Y115.231 E2.16273
G1 X102.876 Y115.003 E2.18919
G1 X103.070 Y115.000 E2.19443
G1 X103.200 Y115.021 E2.19798
G1 X103.281 Y116.648 F7800.000
G1 F1800
G1 X101.655 Y117.176 E2.23320
G1 X110.617 Y144.756 E2.83090
G1 X109.947 Y144.974 E2.84540

G1 F3600
G1 X109.615 Y145.082 E2.85512
G1 X100.111 Y115.832 E3.70945
G1 X100.112 Y115.764 E3.71134
G1 X100.224 Y115.559 E3.71782
G1 X100.369 Y115.415 E3.72350

G1 F1800
G1 X100.495 Y115.288 E3.72718
G1 X100.739 Y115.117 E3.73332
G1 X101.748 Y114.697 E3.75586
G1 X102.812 Y114.444 E3.77840
G1 X103.110 Y114.439 E3.78454
G1 X103.286 Y114.467 E3.78822

G1 F3600
G1 X103.488 Y114.499 E3.79390
G1 X103.700 Y114.598 E3.80038
G1 X103.740 Y114.652 E3.80226
G1 X113.244 Y143.903 E4.65659
G1 X112.911 Y144.011 E4.66631

G1 F1800
G1 X112.242 Y144.228 E4.68082
G1 X103.304 Y116.719 E5.27697
G1 X103.122 Y116.174 F7800.000
G1 X103.695 Y116.218 F7800.000
G1 F1200
G1 X112.657 Y143.799 E5.80474
G1 E3.80474 F2400.00000
G92 E0
G1 X110.029 Y144.653 F7800.000
G1 E2.00000 F2400.00000
G1 F1200
G1 X101.068 Y117.072 E2.52781
G1 X101.142 Y116.164 F7800.000
G1 F1200
G1 X102.108 Y115.805 E2.54870
G1 X103.101 Y115.528 E2.56958
G1 E0.56958 F2400.00000
G92 E0
G1 X100.587 Y109.266 F7800.000
G1 E2.00000 F2400.00000
G1 F900
G1 X100.249 Y109.690 E2.01463
G1 X100.018 Y109.765 E2.02117
G1 X99.496 Y109.621 E2.03579
G1 X99.292 Y109.295 E2.04614
G1 X99.266 Y108.913 E2.05649
G1 X99.604 Y108.489 E2.07112
G1 X99.834 Y108.414 E2.07766
G1 X100.357 Y108.558 E2.09229
G1 X100.560 Y108.883 E2.10263
G1 X100.582 Y109.191 E2.11096
G1 X101.238 Y109.469 F7800.000
G1 F900
G1 X100.627 Y110.236 E2.13741
G1 X100.033 Y110.429 E2.15426
G1 X99.088 Y110.167 E2.18071
G1 X98.669 Y109.498 E2.20201
G1 X98.615 Y108.710 E2.22331
G1 X99.226 Y107.943 E2.24976
G1 X99.820 Y107.750 E2.26661
G1 X100.765 Y108.012 E2.29306
G1 X101.183 Y108.681 E2.31437
G1 X101.233 Y109.394 E2.33365
G1 X101.797 Y109.430 F7800.000

G1 F3600
G1 X101.809 Y109.606 E2.33855
G1 X101.779 Y109.689 E2.34100
G1 X100.961 Y110.717 E2.37750
G1 X100.046 Y111.014 E2.40421
G1 X98.780 Y110.664 E2.44071
G1 X98.707 Y110.614 E2.44316
G1 X98.120 Y109.676 E2.47389
G1 X98.043 Y108.573 E2.50462
G1 X98.073 Y108.490 E2.50708
G1 X98.892 Y107.462 E2.54357
G1 X99.807 Y107.165 E2.57029
G1 X101.073 Y107.515 E2.60679
G1 X101.146 Y107.565 E2.60924
G1 X101.733 Y108.502 E2.63997
G1 X101.792 Y109.355 E2.66372

G1 E0.66372 F2400.00000
G92 E0
G1 X89.633 Y106.157 F7800.000
G1 E2.00000 F2400.00000
G1 F900
G1 X89.277 Y106.300 E2.01035
G1 X88.769 Y106.110 E2.02498
G1 X88.627 Y105.914 E2.03152
G1 X88.603 Y105.372 E2.04614
G1 X88.849 Y105.078 E2.05649
G1 X89.205 Y104.935 E2.06684
G1 X89.713 Y105.125 E2.08147
G1 X89.855 Y105.321 E2.08801
G1 X89.879 Y105.863 E2.10263
G1 X89.681 Y106.099 E2.11096
G1 X89.871 Y106.746 F7800.000
G1 F900
G1 X89.286 Y106.982 E2.12797
G1 X88.367 Y106.638 E2.15442
G1 X88.000 Y106.133 E2.17127
G1 X87.957 Y105.153 E2.19772
G1 X88.464 Y104.548 E2.21903
G1 X89.197 Y104.253 E2.24033
G1 X90.115 Y104.597 E2.26678
G1 X90.482 Y105.102 E2.28363
G1 X90.525 Y106.082 E2.31008
G1 X90.018 Y106.687 E2.33138
G1 X89.940 Y106.718 E2.33364
G1 X90.080 Y107.266 F7800.000

G1 F3600
G1 X89.332 Y107.568 E2.35607
G1 X89.243 Y107.565 E2.35852
G1 X88.013 Y107.104 E2.39502
G1 X87.448 Y106.326 E2.42173
G1 X87.390 Y105.014 E2.45823
G1 X87.414 Y104.929 E2.46068
G1 X88.124 Y104.081 E2.49141
G1 X89.151 Y103.667 E2.52214
G1 X89.239 Y103.670 E2.52460
G1 X90.469 Y104.131 E2.56109
G1 X91.034 Y104.909 E2.58781
G1 X91.093 Y106.222 E2.62430
G1 X91.068 Y106.306 E2.62676
G1 X90.358 Y107.154 E2.65749
G1 X90.150 Y107.238 E2.66371

G1 E0.66371 F2400.00000
G92 E0
G1 X89.713 Y94.875 F7800.000
G1 E2.00000 F2400.00000
G1 F900
G1 X89.205 Y95.065 E2.01463
G1 X88.849 Y94.922 E2.02498
G1 X88.603 Y94.628 E2.03532
G1 X88.627 Y94.086 E2.04995
G1 X88.769 Y93.890 E2.05649
G1 X89.277 Y93.700 E2.07112
G1 X89.633 Y93.843 E2.08147
G1 X89.879 Y94.137 E2.09181
G1 X89.855 Y94.679 E2.10644
G1 X89.757 Y94.814 E2.11096
G1 X89.936 Y95.470 F7800.000
G1 F900
G1 X89.197 Y95.747 E2.13225
G1 X88.464 Y95.452 E2.15356
G1 X87.957 Y94.847 E2.17486
G1 X88.000 Y93.867 E2.20131
G1 X88.367 Y93.362 E2.21816
G1 X89.286 Y93.018 E2.24461
G1 X90.018 Y93.313 E2.26591
G1 X90.525 Y93.918 E2.28721
G1 X90.482 Y94.898 E2.31366
G1 X90.115 Y95.403 E2.33051
G1 X90.006 Y95.444 E2.33364
G1 X90.132 Y95.995 F7800.000

G1 F3600
G1 X89.239 Y96.330 E2.36015
G1 X89.151 Y96.333 E2.36261
G1 X88.124 Y95.919 E2.39334
G1 X87.414 Y95.071 E2.42407
G1 X87.390 Y94.986 E2.42652
G1 X87.448 Y93.674 E2.46302
G1 X88.013 Y92.896 E2.48973
G1 X89.243 Y92.435 E2.52623
G1 X89.332 Y92.432 E2.52868
G1 X90.358 Y92.846 E2.55941
G1 X91.068 Y93.694 E2.59014
G1 X91.093 Y93.778 E2.59260
G1 X91.034 Y95.091 E2.62909
G1 X90.469 Y95.869 E2.65581
G1 X90.203 Y95.969 E2.66371

G1 E0.66371 F2400.00000
G92 E0
G1 X99.604 Y91.511 F7800.000
G1 E2.00000 F2400.00000
G1 F900
G1 X99.266 Y91.087 E2.01463
G1 X99.292 Y90.705 E2.02498
G1 X99.496 Y90.379 E2.03532
G1 X100.018 Y90.235 E2.04995
G1 X100.249 Y90.310 E2.05649
G1 X100.587 Y90.734 E2.07112
G1 X100.560 Y91.117 E2.08147
G1 X100.357 Y91.442 E2.09181
G1 X99.834 Y91.586 E2.10644
G1 X99.675 Y91.535 E2.11096
G1 X99.106 Y91.907 F7800.000
G1 F900
G1 X98.615 Y91.290 E2.13225
G1 X98.669 Y90.502 E2.15356
G1 X99.088 Y89.833 E2.17486
G1 X100.033 Y89.571 E2.20131
G1 X100.627 Y89.764 E2.21816
G1 X101.238 Y90.531 E2.24461
G1 X101.183 Y91.319 E2.26591
G1 X100.765 Y91.988 E2.28722
G1 X99.820 Y92.250 E2.31367
G1 X99.226 Y92.057 E2.33051
G1 X99.153 Y91.966 E2.33365
G1 X98.668 Y92.257 F7800.000

G1 F3600
G1 X98.073 Y91.510 E2.36016
G1 X98.043 Y91.427 E2.36261
G1 X98.120 Y90.324 E2.39334
G1 X98.707 Y89.386 E2.42407
G1 X98.780 Y89.336 E2.42652
G1 X100.046 Y88.986 E2.46302
G1 X100.961 Y89.283 E2.48973
G1 X101.779 Y90.311 E2.52623
G1 X101.809 Y90.394 E2.52868
G1 X101.733 Y91.498 E2.55942
G1 X101.146 Y92.435 E2.59015
G1 X101.073 Y92.485 E2.59260
G1 X99.807 Y92.835 E2.62910
G1 X98.892 Y92.538 E2.65581
G1 X98.715 Y92.315 E2.66372

G1 E0.66372 F2400.00000
G92 E0
G1 X106.902 Y99.426 F7800.000
G1 E2.00000 F2400.00000
G1 F900
G1 X107.201 Y99.879 E2.01463
G1 X107.201 Y100.121 E2.02117
G1 X106.902 Y100.574 E2.03580
G1 X106.530 Y100.667 E2.04614
G1 X106.158 Y100.574 E2.05649
G1 X105.859 Y100.121 E2.07112
G1 X105.859 Y99.879 E2.07766
G1 X106.158 Y99.426 E2.09229
G1 X106.530 Y99.333 E2.10263
G1 X106.830 Y99.408 E2.11096
G1 X105.764 Y98.870 F7800.000
G1 F900
G1 X106.530 Y98.678 E2.13226
G1 X107.296 Y98.870 E2.15356
G1 X107.837 Y99.688 E2.18001
G1 X107.837 Y100.312 E2.19686
G1 X107.296 Y101.130 E2.22331
G1 X106.530 Y101.322 E2.24462
G1 X105.764 Y101.130 E2.26592
G1 X105.223 Y100.312 E2.29237
G1 X105.223 Y99.688 E2.30922
G1 X105.723 Y98.932 E2.33364
G1 X105.296 Y98.561 F7800.000

G1 F3600
G1 X105.387 Y98.423 E2.33823
G1 X105.457 Y98.369 E2.34068
G1 X106.530 Y98.100 E2.37141
G1 X107.603 Y98.369 E2.40214
G1 X107.673 Y98.423 E2.40459
G1 X108.398 Y99.519 E2.44109
G1 X108.398 Y100.481 E2.46780
G1 X107.673 Y101.577 E2.50430
G1 X107.603 Y101.631 E2.50676
G1 X106.530 Y101.900 E2.53749
G1 X105.457 Y101.631 E2.56822
G1 X105.387 Y101.577 E2.57067
G1 X104.663 Y100.481 E2.60717
G1 X104.663 Y99.519 E2.63388
G1 X105.255 Y98.623 E2.66371

G1 E0.66371 F2400.00000
G92 E0
G1 X113.217 Y98.652 F7800.000
G1 E2.00000 F2400.00000
G1 F900
G1 X114.195 Y98.652 E2.02637
G1 X114.195 Y101.348 E2.09908
G1 X113.217 Y101.348 E2.12545
G1 X113.123 Y101.164 E2.13102
G1 X113.066 Y100.978 E2.13627
G1 X112.987 Y100.000 E2.16273
G1 X113.066 Y99.022 E2.18919
G1 X113.123 Y98.836 E2.19444
G1 X113.183 Y98.719 E2.19798
G1 X114.755 Y99.146 F7800.000
G1 F1800
G1 X114.755 Y100.854 E2.23320
G1 X143.755 Y100.854 E2.83090
G1 X143.755 Y101.558 E2.84541

G1 F3600
G1 X143.755 Y101.908 E2.85513
G1 X112.999 Y101.908 E3.70945
G1 X112.935 Y101.886 E3.71134
G1 X112.776 Y101.716 E3.71782
G1 X112.683 Y101.534 E3.72349

G1 F1800
G1 X112.601 Y101.375 E3.72718
G1 X112.514 Y101.090 E3.73332
G1 X112.426 Y100.000 E3.75586
G1 X112.514 Y98.910 E3.77840
G1 X112.601 Y98.625 E3.78454
G1 X112.683 Y98.466 E3.78822

G1 F3600
G1 X112.776 Y98.284 E3.79390
G1 X112.935 Y98.114 E3.80038
G1 X112.999 Y98.092 E3.80227
G1 X143.755 Y98.092 E4.65659
G1 X143.755 Y98.442 E4.66631

G1 F1800
G1 X143.755 Y99.146 E4.68082
G1 X114.830 Y99.146 E5.27697
G1 X114.255 Y99.150 F7800.000
G1 X114.475 Y98.619 F7800.000
G1 F1200
G1 X143.475 Y98.619 E5.80474
G1 E3.80474 F2400.00000
G92 E0
G1 X143.475 Y101.381 F7800.000
G1 E2.00000 F2400.00000
G1 F1200
G1 X114.475 Y101.381 E2.52777
G1 X113.634 Y101.030 F7800.000
G1 F1200
G1 X113.592 Y100.000 E2.54866
G1 X113.634 Y98.970 E2.56955
G1 E0.56955 F2400.00000
G92 E0
G1 X103.070 Y85.000 F7800.000
G1 E2.00000 F2400.00000
G1 F900
G1 X102.876 Y84.997 E2.00525
G1 X101.922 Y84.769 E2.03171
G1 X101.016 Y84.393 E2.05816
G1 X100.857 Y84.281 E2.06341
G1 X100.711 Y84.135 E2.06898
G1 X101.013 Y83.205 E2.09536
G1 X103.576 Y84.038 E2.16806
G1 X103.274 Y84.967 E2.19443
G1 X103.144 Y84.988 E2.19798
G1 X103.281 Y83.352 F7800.000
G1 F1800
G1 X112.242 Y55.772 E2.79568
G1 X112.911 Y55.989 E2.81019

G1 F3600
G1 X113.244 Y56.097 E2.81991
G1 X103.740 Y85.348 E3.67423
G1 X103.700 Y85.402 E3.67612
G1 X103.488 Y85.501 E3.68260
G1 X103.287 Y85.533 E3.68827

G1 F1800
G1 X103.110 Y85.561 E3.69195
G1 X102.812 Y85.556 E3.69809
G1 X101.748 Y85.303 E3.72064
G1 X100.739 Y84.883 E3.74318
G1 X100.495 Y84.712 E3.74932
G1 X100.369 Y84.585 E3.75300

G1 F3600
